src/Assets/Icons/MoneyIcon.svg

<svg width="21" height="21" viewBox="0 0 21 21" fill="none" xmlns="http://www.w3.org/2000/svg">
<path d="M10.0044 20.2827C4.48155 20.2827 0.00439453 15.8056 0.00439453 10.2827C0.00439453 4.75987 4.48155 0.282715 10.0044 0.282715C15.5272 0.282715 20.0044 4.75987 20.0044 10.2827C20.0044 15.8056 15.5272 20.2827 10.0044 20.2827ZM10.0044 18.2827C14.4227 18.2827 18.0044 14.701 18.0044 10.2827C18.0044 5.86444 14.4227 2.28272 10.0044 2.28272C5.58611 2.28272 2.00439 5.86444 2.00439 10.2827C2.00439 14.701 5.58611 18.2827 10.0044 18.2827ZM6.5044 12.2827H12.0044C12.2805 12.2827 12.5044 12.0589 12.5044 11.7827C12.5044 11.5066 12.2805 11.2827 12.0044 11.2827H8.00442C6.62369 11.2827 5.5044 10.1634 5.5044 8.78269C5.5044 7.40201 6.62369 6.28271 8.00442 6.28271H9.00442V4.28271H11.0044V6.28271H13.5044V8.28269H8.00442C7.72826 8.28269 7.5044 8.50659 7.5044 8.78269C7.5044 9.05889 7.72826 9.28269 8.00442 9.28269H12.0044C13.3851 9.28269 14.5044 10.402 14.5044 11.7827C14.5044 13.1634 13.3851 14.2827 12.0044 14.2827H11.0044V16.2827H9.00442V14.2827H6.5044V12.2827Z" fill="#262626"/>
</svg>

<svg width="21" height="21" fill="none" xmlns="http://www.w3.org/2000/svg"><path d="M10.004 20.283c-5.522 0-10-4.477-10-10s4.478-10 10-10c5.523 0 10 4.477 10 10s-4.477 10-10 10Zm0-2a8 8 0 1 0 0-16 8 8 0 0 0 0 16Zm-3.5-6h5.5a.5.5 0 1 0 0-1h-4a2.5 2.5 0 1 1 0-5h1v-2h2v2h2.5v2h-5.5a.5.5 0 0 0 0 1h4a2.5 2.5 0 0 1 0 5h-1v2h-2v-2h-2.5v-2Z" fill="#262626"/></svg>
